icons/icn_comparadorContactlink.svg

<svg width="24" xmlns="http://www.w3.org/2000/svg" height="24" id="screenshot-62f3a77a-6931-802e-8006-9c1c5a060a47" viewBox="0 0 24 24" xmlns:xlink="http://www.w3.org/1999/xlink" fill="none" version="1.1"><g id="shape-62f3a77a-6931-802e-8006-9c1c5a060a47"><g class="frame-container-wrapper"><g class="frame-container-blur"><g class="frame-container-shadows"><g fill="none"><g class="fills" id="fills-62f3a77a-6931-802e-8006-9c1c5a060a47"><rect rx="0" ry="0" x="0" y="0" width="24" height="24.000000000000455" transform="matrix(1, 0, 0, 1, 0, 0)" class="frame-background"/></g><g class="frame-children"><g id="shape-62f3a77a-6931-802e-8006-9c1b57af27db" width="512" height="512" rx="0" ry="0" style="fill: rgb(0, 0, 0);"><g id="shape-62f3a77a-6931-802e-8006-9c1b57b4e788"><g class="fills" id="fills-62f3a77a-6931-802e-8006-9c1b57b4e788"><path d="M0.00004882812572759576,16.40625C0.00004882812572759576,17.827880859375,1.1565430164337158,18.984375,2.578173875808716,18.984375L21.421924591064453,18.984375C22.843555450439453,18.984375,24.000049591064453,17.827880859375,24.000049591064453,16.40625L24.000049591064453,16.171875L0.00004882812572759576,16.171875L0.00004882812572759576,16.40625Z" style="fill: rgb(0, 0, 0); fill-opacity: 1;"/></g></g><g id="shape-62f3a77a-6931-802e-8006-9c1b57b56d4e"><g class="fills" id="fills-62f3a77a-6931-802e-8006-9c1b57b56d4e"><path d="M21.421924591064453,0.703125L12.703173637390137,0.703125L12.703173637390137,14.765625L24.000049591064453,14.765625L24.000049591064453,3.28125C24.000049591064453,1.859619140625,22.843555450439453,0.703125,21.421924591064453,0.703125Z" style="fill: rgb(0, 0, 0); fill-opacity: 1;"/></g></g><g id="shape-62f3a77a-6931-802e-8006-9c1b57b56d4f"><g class="fills" id="fills-62f3a77a-6931-802e-8006-9c1b57b56d4f"><path d="M2.578173875808716,0.703125C1.1565430164337158,0.703125,0.00004882812572759576,1.859619140625,0.00004882812572759576,3.28125L0.00004882812572759576,14.765625L11.296923637390137,14.765625L11.296923637390137,0.703125L2.578173875808716,0.703125Z" style="fill: rgb(0, 0, 0); fill-opacity: 1;"/></g></g><g id="shape-62f3a77a-6931-802e-8006-9c1b57b5ea2f"><g class="fills" id="fills-62f3a77a-6931-802e-8006-9c1b57b5ea2f"><path d="M17.625049591064453,21.890625L16.260303497314453,21.890625L15.771288871765137,20.390625L8.228808403015137,20.390625L7.739794731140137,21.890625L6.375048637390137,21.890625C5.986620903015137,21.890625,5.671923637390137,22.2054443359375,5.671923637390137,22.59375C5.671923637390137,22.9820556640625,5.986620903015137,23.296875,6.375048637390137,23.296875L17.625049591064453,23.296875C18.013477325439453,23.296875,18.328174591064453,22.9820556640625,18.328174591064453,22.59375C18.328174591064453,22.2054443359375,18.013477325439453,21.890625,17.625049591064453,21.890625Z" style="fill: rgb(0, 0, 0); fill-opacity: 1;"/></g></g></g></g></g></g></g></g></g></svg>

<svg fill="none" viewBox="0 0 24 24"><g class="frame-container-wrapper"><g class="frame-container-blur"><g class="frame-container-shadows"><g class="fills"><rect width="24" height="24" class="frame-background" rx="0" ry="0"/></g><g fill="#000" class="frame-children"><path d="M0 16.4063c0 1.4216 1.1565 2.578 2.5782 2.578h18.8437c1.4217 0 2.5781-1.1564 2.5781-2.578v-.2344H0v.2343ZM21.422.7031h-8.7188v14.0625H24V3.2813C24 1.8596 22.8436.703 21.422.703ZM2.5782.7031C1.1565.7031 0 1.8596 0 3.2812v11.4844h11.297V.7031H2.5781ZM17.625 21.8906h-1.3647l-.489-1.5H8.2288l-.489 1.5H6.375a.703.703 0 0 0-.703.7032.703.703 0 0 0 .703.703h11.25a.703.703 0 0 0 .7032-.703.703.703 0 0 0-.7032-.7032Z" class="fills"/></g></g></g></g></svg>
